icons/Editor/number-8.svg

<svg viewBox="0 0 24 24" xmlns="http://www.w3.org/2000/svg"><path d="M12 1.5C15.0376 1.5 17.5 3.96243 17.5 7C17.5 8.77579 16.6584 10.355 15.3523 11.3606C17.2389 12.4091 18.5 14.3186 18.5 16.5C18.5 19.8137 15.5899 22.5 12 22.5C8.41015 22.5 5.5 19.8137 5.5 16.5C5.5 14.3186 6.7611 12.4091 8.64703 11.3589C7.34158 10.355 6.5 8.77579 6.5 7C6.5 3.96243 8.96243 1.5 12 1.5ZM12 12.5C9.48055 12.5 7.5 14.3282 7.5 16.5C7.5 18.6718 9.48055 20.5 12 20.5C14.5194 20.5 16.5 18.6718 16.5 16.5C16.5 14.3282 14.5194 12.5 12 12.5ZM12 3.5C10.067 3.5 8.5 5.067 8.5 7C8.5 8.933 10.067 10.5 12 10.5C13.933 10.5 15.5 8.933 15.5 7C15.5 5.067 13.933 3.5 12 3.5Z"/></svg>

<svg xmlns="http://www.w3.org/2000/svg" viewBox="0 0 24 24">
    <g>
        <path fill="none" d="M0 0h24v24H0z"/>
        <path d="M12 1.5a5.5 5.5 0 0 1 3.352 9.86C17.24 12.41 18.5 14.32 18.5 16.5c0 3.314-2.91 6-6.5 6s-6.5-2.686-6.5-6c0-2.181 1.261-4.09 3.147-5.141A5.5 5.5 0 0 1 12 1.5zm0 11c-2.52 0-4.5 1.828-4.5 4 0 2.172 1.98 4 4.5 4s4.5-1.828 4.5-4c0-2.172-1.98-4-4.5-4zm0-9a3.5 3.5 0 1 0 0 7 3.5 3.5 0 0 0 0-7z"/>
    </g>
</svg>
